X:136
T:Tushkar
R:Reel
C:Ronnie Cooper
Z: Robin Shaylor
M:4/4
L:1/8
K:A
cB |\
"A" Aafa      edcB |       A2 cA      EAcA | "A"  cefg "F#m" afec | "Bm"d2 B2 "E" B2 ag  |
"D" fgaf "E"  edcB | "F#m" A2 cA "A6" EAcA | "D" Bcde "E7"   fefg | "A" a2 A2     A2    :|
dc |\
"E7" BeGe     BGEG | "A"   AecA       EAcA | "A" cefg "F#m"  afec | "Bm"d2 B2 "E" B2 dc  |
"E7" BeGe     BGEG | "A"   AecA       EAcA | "D" Bcde "E7"   fefg | "A" a2 A2     A2 cd  |
"E7" BeGe     BGEG | "A"   AecA       EAcA | "A" cefg "F#m"  afec | "Bm"d2 B2 "E" B2 ag  |
"D"  fgaf "E" edcB | "F#m" A2 cA "A6" EAcA | "D" Bcde "E7"   fefg | "A" a2 A2     A2     |]
